X:1
T:New Policeman's [2]
M:C|
L:1/8
R:Reel
S:Ryan's Mammoth Collection (1883)
Z:AK/Fiddler's Companion
K:G
D2 |: G2 (BG) F2 (AG) | FGAB c2 (Bc) | .d(fge) d2 (eg) | fdcA BGAF |
G2 (BG) F2 (AG) | FGAB c2 (Bc) | dgge d2 (de) fdcA BG G2 :|
|: {a}gfge d2 (ef) | {a}gfga bgaf | (3.g.g.g (ge)d2 (de) | fdcA (BG) G2 |
{a}gfge d2 (ef) | {a}gfga bgaf | {a}gfge d2 (de) | fdcA BG G2 :|]

